public/socials/youtube.svg

<svg xmlns="http://www.w3.org/2000/svg" viewBox="0 0 640 640"><path fill="#a7a7a8" d="M581.7 188.1c-6.2-23.7-24.8-42.3-48.3-48.6C490.9 128 320.1 128 320.1 128s-170.8 0-213.4 11.5c-23.5 6.3-42 24.9-48.3 48.6C47 231 47 320.4 47 320.4s0 89.4 11.4 132.3c6.3 23.6 24.8 41.5 48.3 47.8C149.3 512 320.1 512 320.1 512s170.8 0 213.4-11.5c23.5-6.3 42-24.2 48.3-47.8 11.4-42.9 11.4-132.3 11.4-132.3s0-89.4-11.4-132.3zM264.2 401.6V239.2l142.7 81.2z"/></svg>

<svg xmlns="http://www.w3.org/2000/svg" viewBox="0 0 640 640"><!--!Font Awesome Free 7.2.0 by @fontawesome - https://fontawesome.com License - https://fontawesome.com/license/free Copyright 2026 Fonticons, Inc.--><path fill="#a7a7a8" d="M581.7 188.1C575.5 164.4 556.9 145.8 533.4 139.5C490.9 128 320.1 128 320.1 128C320.1 128 149.3 128 106.7 139.5C83.2 145.8 64.7 164.4 58.4 188.1C47 231 47 320.4 47 320.4C47 320.4 47 409.8 58.4 452.7C64.7 476.3 83.2 494.2 106.7 500.5C149.3 512 320.1 512 320.1 512C320.1 512 490.9 512 533.5 500.5C557 494.2 575.5 476.3 581.8 452.7C593.2 409.8 593.2 320.4 593.2 320.4C593.2 320.4 593.2 231 581.8 188.1zM264.2 401.6L264.2 239.2L406.9 320.4L264.2 401.6z"/></svg>
